react/features/base/icons/svg/LD.svg

<!-- Generated by IcoMoon.io -->
<svg version="1.1" xmlns="http://www.w3.org/2000/svg" width="32" height="32" viewBox="0 0 32 32">
<title>LD</title>
<path d="M16 32c-8.837 0-16-7.163-16-16s7.163-16 16-16c8.837 0 16 7.163 16 16s-7.163 16-16 16zM14.762 18.459h-3.511v-6.453h-1.652v7.891h5.162v-1.438zM16.261 12v7.897h3.106c2.363 0 3.702-1.438 3.702-4.003 0-2.472-1.356-3.894-3.702-3.894h-3.106zM17.913 13.411v5.075h1.192c1.46 0 2.28-0.897 2.28-2.565 0-1.597-0.848-2.51-2.28-2.51h-1.192z"></path>
</svg>

<svg xmlns="http://www.w3.org/2000/svg" width="32" height="32" viewBox="0 0 32 32"><path d="M16,32A16,16,0,1,1,32,16,16,16,0,0,1,16,32ZM14.762,18.459H11.251V12.006H9.6V19.9h5.162V18.459ZM16.261,12v7.9h3.106c2.363,0,3.7-1.438,3.7-4,0-2.472-1.356-3.894-3.7-3.894H16.261Zm1.652,1.411v5.075H19.1c1.46,0,2.28-.9,2.28-2.565a2.194,2.194,0,0,0-2.28-2.51H17.913Z"/></svg>
